src/assets/filled/GallerySlash.svg

<svg width="24" height="24" viewBox="0 0 24 24"  xmlns="http://www.w3.org/2000/svg">
<path d="M21.7699 2.22988C21.4699 1.92988 20.9799 1.92988 20.6799 2.22988L2.22988 20.6899C1.92988 20.9899 1.92988 21.4799 2.22988 21.7799C2.37988 21.9199 2.56988 21.9999 2.76988 21.9999C2.96988 21.9999 3.15988 21.9199 3.30988 21.7699L21.7699 3.30988C22.0799 3.00988 22.0799 2.52988 21.7699 2.22988Z" />
<path d="M9.00012 10.3801C10.3146 10.3801 11.3801 9.31456 11.3801 8.00012C11.3801 6.68568 10.3146 5.62012 9.00012 5.62012C7.68568 5.62012 6.62012 6.68568 6.62012 8.00012C6.62012 9.31456 7.68568 10.3801 9.00012 10.3801Z" />
<path d="M21.6099 5.38989L20.3899 6.60989C20.4699 6.97989 20.4999 7.37989 20.4999 7.80989V12.6099L20.3699 12.4999C19.5899 11.8299 18.3299 11.8299 17.5499 12.4999L13.3899 16.0699C12.6799 16.6799 11.5599 16.7399 10.7799 16.2199L5.3999 21.5999C5.4399 21.6199 5.4799 21.6299 5.5199 21.6399C5.7899 21.7299 6.0599 21.7999 6.3499 21.8599C6.4499 21.8799 6.5499 21.8999 6.6599 21.9099C7.0299 21.9599 7.4099 21.9999 7.8099 21.9999H16.1899C19.8299 21.9999 21.9999 19.8299 21.9999 16.1899V7.80989C21.9999 6.90989 21.8699 6.09989 21.6099 5.38989Z" />
<path d="M21.6099 5.38989L20.3899 6.60989C20.4699 6.97989 20.4999 7.37989 20.4999 7.80989V12.6099L20.3699 12.4999C19.5899 11.8299 18.3299 11.8299 17.5499 12.4999L13.3899 16.0699C12.6799 16.6799 11.5599 16.7399 10.7799 16.2199L5.38989 21.6099C6.09989 21.8699 6.90989 21.9999 7.80989 21.9999H16.1899C19.8299 21.9999 21.9999 19.8299 21.9999 16.1899V7.80989C21.9999 6.90989 21.8699 6.09989 21.6099 5.38989Z" />
<path d="M20.46 3.54L19.4 4.6C18.68 3.87 17.6 3.5 16.19 3.5H7.81C4.99 3.5 3.5 4.99 3.5 7.81V16.19C3.5 16.95 3.63 17.6 3.85 18.16L7.59 15.65C7.93 15.42 8.32 15.3 8.71 15.29L3.54 20.46C3.14 20.06 2.81 19.58 2.56 19.03C2.19 18.23 2 17.28 2 16.19V7.81C2 4.17 4.17 2 7.81 2H16.19C18.01 2 19.46 2.54 20.46 3.54Z" />
</svg>

<?xml version="1.0" encoding="UTF-8"?>
<svg width="24" height="24" viewBox="0 0 24 24" xmlns="http://www.w3.org/2000/svg">
 <path d="m21.77 2.2299c-0.3-0.3-0.79-0.3-1.09 0l-18.45 18.46c-0.3 0.3-0.3 0.79 0 1.09 0.15 0.14 0.34 0.22 0.54 0.22s0.39-0.08 0.54-0.23l18.46-18.46c0.31-0.3 0.31-0.78 0-1.08z"/>
 <path d="m9.0001 10.38c1.3145 0 2.38-1.0655 2.38-2.38s-1.0655-2.38-2.38-2.38c-1.3144 0-2.38 1.0656-2.38 2.38s1.0656 2.38 2.38 2.38z"/>
 <path d="m21.61 5.3899-1.22 1.22c0.08 0.37 0.11 0.77 0.11 1.2v4.8l-0.13-0.11c-0.78-0.67-2.04-0.67-2.82 0l-4.16 3.57c-0.71 0.61-1.83 0.67-2.61 0.15l-5.38 5.38c0.04 0.02 0.08 0.03 0.12 0.04 0.27 0.09 0.54 0.16 0.83 0.22 0.1 0.02 0.2 0.04 0.31 0.05 0.37 0.05 0.75 0.09 1.15 0.09h8.38c3.64 0 5.81-2.17 5.81-5.81v-8.38c0-0.9-0.13-1.71-0.39-2.42z"/>
 <path d="m21.61 5.3899-1.22 1.22c0.08 0.37 0.11 0.77 0.11 1.2v4.8l-0.13-0.11c-0.78-0.67-2.04-0.67-2.82 0l-4.16 3.57c-0.71 0.61-1.83 0.67-2.61 0.15l-5.39 5.39c0.71 0.26 1.52 0.39 2.42 0.39h8.38c3.64 0 5.81-2.17 5.81-5.81v-8.38c0-0.9-0.13-1.71-0.39-2.42z"/>
 <path d="m20.46 3.54-1.06 1.06c-0.72-0.73-1.8-1.1-3.21-1.1h-8.38c-2.82 0-4.31 1.49-4.31 4.31v8.38c0 0.76 0.13 1.41 0.35 1.97l3.74-2.51c0.34-0.23 0.73-0.35 1.12-0.36l-5.17 5.17c-0.4-0.4-0.73-0.88-0.98-1.43-0.37-0.8-0.56-1.75-0.56-2.84v-8.38c0-3.64 2.17-5.81 5.81-5.81h8.38c1.82 0 3.27 0.54 4.27 1.54z"/>
</svg>
